X: 16579
T: Hand Me Down The Tackle
R: reel
M: 4/4
K: Dmajor
d~D3 FAAF|dgfd edBc|d~D3 FAAF|GFEF GABc|
d~D3 FAAF|dgfd edBd|fdec dcBA|~G3F GABc:|
de (3fed AdfA|dfed cdec|de (3fed Adfd|BGEF GABc
de (3fed AdfA|dfed cdeg|fdec dcBA|~G3F GABc:|

